X:176
T:Mayor Harrison's Fedora
R:reel
M:4/4
L:1/8
K:Edor
EF|:GBEG (3BBB AF|GFGA BdAG|FADF ADFA|(3ddd cd BAGF|
|GBEG (3BBB AF|GFGA ~B3 c|dedB AGFA|1 GEFD ~E3 F:|2 GEFD ~E3 A||
|:Beed e2 ef|g2 fg edBA|FABc d2 (3ABc|dfaf gfed|
|Beed e2 ef|g2 fg edBc|dedB AGFA|1GEFD ~E3 A:|2 GEFD ~E3 F||

